Simply-Blue-Circles/scalable/devices/audio-microphone.svg

<svg xmlns="http://www.w3.org/2000/svg" width="48" height="48" viewBox="0 0 12.7 12.7"><path d="M6.344.073a6.29 6.29 0 0 0-6.29 6.29 6.29 6.29 0 0 0 6.29 6.288 6.29 6.29 0 0 0 6.29-6.289 6.29 6.29 0 0 0-6.29-6.29zm-.018.936a5.407 5.407 0 0 1 5.407 5.407 5.407 5.407 0 0 1-5.407 5.407A5.407 5.407 0 0 1 .92 6.416 5.407 5.407 0 0 1 6.326 1.01zm-.052.776c-.867 0-1.565.698-1.565 1.565v1.556c-.477.204-.784.5-.784.833v1.434c0 .542.796.993 1.852 1.095v1.874H3.766a.148.148 0 0 0-.15.148v.175c0 .082.067.148.15.148h5.041c.083 0 .15-.065.15-.148v-.175a.148.148 0 0 0-.15-.148H6.82V8.249c.986-.127 1.716-.559 1.716-1.076V5.739c0-.313-.268-.596-.697-.799V3.35c0-.867-.698-1.565-1.565-1.565zM4.709 5.37v.513c0 .867.698 1.565 1.565 1.565s1.565-.698 1.565-1.565v-.465c.12.078.188.18.188.321v1.434s-.833.636-1.833.636c-.999 0-1.76-.636-1.76-.636V5.739c0-.171.102-.288.275-.369z" fill="#2c89a0"/></svg>

<?xml version="1.0" encoding="UTF-8" standalone="no"?>
<svg
   xmlns:dc="http://purl.org/dc/elements/1.1/"
   xmlns:cc="http://creativecommons.org/ns#"
   xmlns:rdf="http://www.w3.org/1999/02/22-rdf-syntax-ns#"
   xmlns:svg="http://www.w3.org/2000/svg"
   xmlns="http://www.w3.org/2000/svg"
   xmlns:sodipodi="http://sodipodi.sourceforge.net/DTD/sodipodi-0.dtd"
   xmlns:inkscape="http://www.inkscape.org/namespaces/inkscape"
   width="48"
   height="48"
   viewBox="0 0 12.7 12.7"
   version="1.1"
   id="svg4"
   sodipodi:docname="audio-microphone.svg"
   inkscape:version="0.92.4 (5da689c313, 2019-01-14)">
  <metadata
     id="metadata10">
    <rdf:RDF>
      <cc:Work
         rdf:about="">
        <dc:format>image/svg+xml</dc:format>
        <dc:type
           rdf:resource="http://purl.org/dc/dcmitype/StillImage" />
        <dc:title></dc:title>
      </cc:Work>
    </rdf:RDF>
  </metadata>
  <defs
     id="defs8" />
  <sodipodi:namedview
     pagecolor="#ffffff"
     bordercolor="#666666"
     borderopacity="1"
     objecttolerance="10"
     gridtolerance="10"
     guidetolerance="10"
     inkscape:pageopacity="0"
     inkscape:pageshadow="2"
     inkscape:window-width="1087"
     inkscape:window-height="480"
     id="namedview6"
     showgrid="false"
     inkscape:zoom="4.9166667"
     inkscape:cx="2.1355932"
     inkscape:cy="24"
     inkscape:window-x="0"
     inkscape:window-y="25"
     inkscape:window-maximized="0"
     inkscape:current-layer="svg4" />
  <path
     d="m 6.344,0.073 a 6.29,6.29 0 0 0 -6.29,6.29 6.29,6.29 0 0 0 6.29,6.288 6.29,6.29 0 0 0 6.29,-6.289 6.29,6.29 0 0 0 -6.29,-6.29 z M 6.326,1.009 A 5.407,5.407 0 0 1 11.733,6.416 5.407,5.407 0 0 1 6.326,11.823 5.407,5.407 0 0 1 0.92,6.416 5.407,5.407 0 0 1 6.326,1.01 Z M 6.274,1.785 C 5.407,1.785 4.709,2.483 4.709,3.35 V 4.906 C 4.232,5.11 3.925,5.406 3.925,5.739 v 1.434 c 0,0.542 0.796,0.993 1.852,1.095 v 1.874 H 3.766 a 0.148,0.148 0 0 0 -0.15,0.148 v 0.175 c 0,0.082 0.067,0.148 0.15,0.148 h 5.041 c 0.083,0 0.15,-0.065 0.15,-0.148 V 10.29 A 0.148,0.148 0 0 0 8.807,10.142 H 6.82 V 8.249 C 7.806,8.122 8.536,7.69 8.536,7.173 V 5.739 C 8.536,5.426 8.268,5.143 7.839,4.94 V 3.35 C 7.839,2.483 7.141,1.785 6.274,1.785 Z M 4.709,5.37 v 0.513 c 0,0.867 0.698,1.565 1.565,1.565 0.867,0 1.565,-0.698 1.565,-1.565 V 5.418 c 0.12,0.078 0.188,0.18 0.188,0.321 v 1.434 c 0,0 -0.833,0.636 -1.833,0.636 -0.999,0 -1.76,-0.636 -1.76,-0.636 V 5.739 c 0,-0.171 0.102,-0.288 0.275,-0.369 z"
     id="path2"
     inkscape:connector-curvature="0"
     style="fill:#2c89a0" />
</svg>
